!!!ONB: MCCC : IJH0418_02 : Extracted Monophonic Melody
!!!COM: Haydn, Joseph
!!!OPR: String Quartet in C major
!!!OMV: 2
!!!SCT: Hob.III:39 ; Op.33 No.3
!!!ODT: 1781///
**kern
*thru
*k[]
*C:
*clefF
*M3/4
4c
=1
2c
4d
=2
4c
4B
4c
=3
4d
4e
4f
=4
4f
4e
4d
=5
2d
4e
=6
4d
4c#
4d
=7
4e
4g
4f#
=8
4d
4f
4e
=9
4d
4c
4B
=10
4c
4r
4g
=11
2g
4f
=12
4e
4d
4a
=13
2a
4g
=14
4f
4e
4d
=15
4d
4d
4d
=16
4e
4f
4g
=17
4f
4a
4c#
=18
4d
4r
4f
=19
2f
4f#
=20
4f#
4g
4d
=21
2d
4e
=22
4e
4f
4d
=23
4e
4f
4d
=24
2B
4c
=25
2c
4d
=26
4c
4B
4c
=27
4d
4e
4f
=28
4f
4e
4d
=29
2d
4e
=30
4d
4c#
4d
=31
4e
4g
4f#
=32
4d
4f
4e
=33
4d
4c
4B
=34
4c
4r
4gg
=35
4gg
4r
4aa
=36
4gg
4r
4ff
=37
8ee
8gg
8ee
8gg
8ff
8dd
=38
4cc
4r
4dd
=39
8ee
8gg
8ee
8gg
8ff#
8aa
=40
4gg
4r
4aa
=41
8bb
8ccc
8ddd
8bb
8ccc
8aa
=42
4gg
4r
4gg
=43
4ff
4r
4ee
=44
4dd
4r
4gg
=45
4ff
4r
4ee
=46
8dd
8b
8cc
8dd
8ee
8ff
=47
4gg
4r
4aa
=48
4gg
4r
4ff
=49
8ee
8gg
8ccc
8eee
8ddd
8bb
=50
4ccc
2r
==
*-
